public/images/icons/network.svg

<svg fill="none" height="140" viewBox="0 0 129 140" width="129" xmlns="http://www.w3.org/2000/svg" xmlns:xlink="http://www.w3.org/1999/xlink"><linearGradient id="a"><stop offset="0" stop-color="#ffe7e0"/><stop offset=".34375" stop-color="#f8dbf4"/><stop offset=".6875" stop-color="#c4ddff"/><stop offset="1" stop-color="#cae9ff"/></linearGradient><linearGradient id="b" gradientUnits="userSpaceOnUse" x1=".000004" x2="105.945" xlink:href="#a" y1="70" y2="21.5682"/><linearGradient id="c" gradientUnits="userSpaceOnUse" x1="44" x2="76.9345" xlink:href="#a" y1="70" y2="52.7209"/><g clip-rule="evenodd" fill-rule="evenodd"><g fill="url(#b)"><path d="m54.8936 9.13043c0-5.00655 4.1323-9.13043 9.149-9.13043s9.1489 4.12388 9.1489 9.13043c0 3.93567-2.5698 7.28957-6.0993 8.55977v12.7446c.0057.4033-.0689.8037-.2196 1.1779-.1507.3743-.3745.7149-.6582 1.0021-.1451.1468-.3043.2782-.4751.3923-.2459-.0047-.4923-.0071-.7393-.0071-.8513 0-1.6958.0284-2.5327.0842-.2172-.1308-.4177-.2883-.5966-.4694-.2837-.2872-.5075-.6278-.6581-1.0021-.1507-.3742-.2254-.7746-.2197-1.1779v-12.7446c-3.5294-1.2702-6.0993-4.6241-6.0993-8.55977zm12.1986 0c0-1.71691-1.3292-3.04347-3.0496-3.04347s-3.0497 1.32656-3.0497 3.04347c0 1.65307 1.2438 2.91407 2.871 3.00777.0436-.0029.0873-.0049.131-.0059.0735-.0007.147.0013.2204.0059 1.6302-.0908 2.8769-1.3526 2.8769-3.00777z"/><path d="m34.8309 48.3643-16.7296-9.9701c.1286-.6052.1966-1.2315.1966-1.8725 0-5.0065-4.1323-9.1304-9.14896-9.1304-5.0167 0-9.14894 4.1239-9.14894 9.1304 0 5.0066 4.13224 9.1305 9.14894 9.1305 2.17226 0 4.15306-.8032 5.72996-2.0865l16.812 10.0237c.9011-1.8325 1.9531-3.5794 3.14-5.2251zm-22.6323-11.8426c0-1.7169-1.3293-3.0434-3.04966-3.0434-1.7204 0-3.04965 1.3265-3.04965 3.0434 0 1.717 1.32925 3.0435 3.04965 3.0435 1.72036 0 3.04966-1.3265 3.04966-3.0435z"/><path d="m61.0705 105.797c-.0545.235-.081.479-.0776.725v15.788c-3.5294 1.27-6.0993 4.624-6.0993 8.56 0 5.006 4.1323 9.13 9.149 9.13s9.1489-4.124 9.1489-9.13c0-3.936-2.5698-7.29-6.0993-8.56v-15.788c.0027-.194-.0132-.387-.0472-.577-.677.037-1.3588.055-2.045.055-1.3273 0-2.6383-.069-3.9295-.203zm3.1508 22.065c-.1171.006-.2344.006-.3515 0-1.6302.091-2.8769 1.352-2.8769 3.008 0 1.716 1.3293 3.043 3.0497 3.043s3.0496-1.327 3.0496-3.043c0-1.654-1.2438-2.915-2.8709-3.008z"/><path d="m94.6434 91.3464c.0274.0878.0589.1746.0944.26.2522.6069.6944 1.1161 1.2605 1.4515l13.9917 8.5301c-.131.611-.203 1.243-.203 1.89 0 5.007 4.132 9.131 9.149 9.131s9.149-4.124 9.149-9.131c0-5.0063-4.132-9.1302-9.149-9.1302-2.164 0-4.138.7994-5.712 2.0746l-14.045-8.5598c-.5198-.3257-1.126-.4873-1.7392-.4637-.0651.0025-.1298.007-.1943.0136-.7829 1.3686-1.6527 2.6823-2.6021 3.9339zm27.3426 12.1316c0-1.717-1.329-3.043-3.05-3.043-1.72 0-3.049 1.326-3.049 3.043s1.329 3.044 3.049 3.044c1.721 0 3.05-1.327 3.05-3.044z"/><path d="m97.8634 52.7134 15.3426-9.1477c1.577 1.2833 3.558 2.0865 5.73 2.0865 5.017 0 9.149-4.1239 9.149-9.1305 0-5.0065-4.132-9.1304-9.149-9.1304s-9.149 4.1239-9.149 9.1304c0 .641.068 1.2673.197 1.8725l-15.4019 9.1788c1.2318 1.6146 2.3309 3.3334 3.2813 5.1404zm24.1226-16.1917c0-1.7169-1.329-3.0434-3.05-3.0434-1.72 0-3.049 1.3265-3.049 3.0434 0 1.717 1.329 3.0435 3.049 3.0435 1.721 0 3.05-1.3265 3.05-3.0435z"/><path d="m28.9061 87.8626c.4919-.3098 1.0623-.4727 1.644-.4696.6672.0043 1.3145.2268 1.8429.6334.5283.4066.9085.9749 1.0822 1.6178s.1314 1.3249-.1204 1.9415c-.2519.6166-.6994 1.1337-1.274 1.4722l-13.9854 8.5301c.1312.611.2025 1.243.2025 1.89 0 5.007-4.1323 9.131-9.14896 9.131-5.0167 0-9.14894-4.124-9.14894-9.131 0-5.0063 4.13224-9.1302 9.14894-9.1302 2.16466 0 4.13776.7994 5.71216 2.0746zm-16.7075 15.6154c0-1.717-1.3293-3.043-3.04966-3.043-1.7204 0-3.04965 1.326-3.04965 3.043s1.32925 3.044 3.04965 3.044c1.72036 0 3.04966-1.327 3.04966-3.044z"/></g><path d="m74.5891 52.9846c2.3193-.4352 10.9947-2.0632 11.3808.7114.3962 2.8416-3.179 6.7603-6.9195 8.5214-.1972.0929-.3722.2208-.5476.3489-.1456.1063-.2915.2129-.4504.2996-.5887.3221-.9397 1.126-.8533 1.851v10.1526c-2.9495-2.0858-7.2851-3.3837-12.199-3.3837-4.9138 0-9.2493 1.2979-12.1988 3.3836v-10.1525c.0863-.725-.2649-1.5289-.8537-1.851-.1584-.0866-.304-.193-.4495-.2992-.1756-.1282-.351-.2563-.5484-.3493-3.7405-1.7612-7.3153-5.6798-6.9196-8.5214.3865-2.7749 9.0637-1.1463 11.3817-.7113.1845.0347.3287.0617.4252.0784.0673.0116.1299-.0461.1165-.1132-.1336-.6712-.2299-2.4862 1.0491-2.8791.8177-.2515 1.3567.2124 1.6766.6804.1433.21.5719 1.1176.8382 1.7476.1437.3403.4782.8375.8454.8285 1.5413-.4823 3.0895-.7235 4.6373-.7235 1.548 0 3.0961.2412 4.6372.7235.3674.009.7018-.4882.8454-.8285.2663-.63.6951-1.5376.8382-1.7476.32-.468.8593-.9319 1.6768-.6804 1.2788.3929 1.1824 2.2079 1.0491 2.8791-.0136.0671.049.1248.1163.1132.0967-.0167.2411-.0438.426-.0785zm-11.4309 11.2402c.0426-.2571-.3682-.9088-1.6515-1.7935-.9006-.6135-1.8984-1.0846-2.9419-1.3945-.245-.0729-.5002-.1202-.7556-.1109-.4661.0174-.9127.1774-1.3043.4607-.5227.3649-.8848.852-.994 1.4822-.1119.6295.0629 1.212.4297 1.735.2716.4005.6369.7045 1.0689.8811.2368.0971.4927.1398.748.1559 1.0859.0674 2.1836-.032 3.2387-.2988 1.5068-.3904 2.1145-.8614 2.162-1.1172zm9.8326 1.2601c.432-.1766.7973-.4806 1.0688-.8811.3669-.523.5416-1.1052.4297-1.7347-.109-.6302-.4713-1.1176-.9939-1.4826-.3914-.2832-.8382-.4432-1.3043-.4606-.2554-.0093-.5106.038-.7556.1109-1.0436.3098-2.0413.781-2.942 1.3945-1.2832.8847-1.694 1.5362-1.6517 1.7932.0476.2559.6553.7271 2.1623 1.1175 1.0548.2668 2.1528.3662 3.2387.2988.2552-.0161.5112-.0588.748-.1559z" fill="url(#c)"/><path d="m50.4673 81.5874c0-4.6462 6.5064-8.4126 14.5328-8.4126 8.0263 0 14.5331 3.7665 14.5331 8.4126 0 4.6462-6.5066 8.4126-14.5331 8.4126-8.0264 0-14.5328-3.7663-14.5328-8.4126zm5.0306-.5236c.2221 1.3834 1.38 1.9934 2.6237 1.3834 1.213-.574 2.0125-1.7728 2.0807-3.1185-.0054-.7132-.3809-.4394-.8446-.1013-.6201.4521-1.3979 1.0192-1.6593-.5045-.457-2.6635-2.4439.8589-2.2005 2.3409zm16.3806 1.3834c1.2433.61 2.4013 0 2.6236-1.3834.2431-1.482-1.7434-5.0044-2.2005-2.3409-.2616 1.5238-1.0395.9566-1.6594.5044-.4636-.3381-.839-.6118-.8442.1014.0676 1.3457.8673 2.5445 2.0805 3.1185z" fill="url(#c)"/></g></svg>

<svg width="129" height="140" viewBox="0 0 129 140" fill="none" xmlns="http://www.w3.org/2000/svg">
<path fill-rule="evenodd" clip-rule="evenodd" d="M54.8936 9.13043C54.8936 4.12388 59.0259 0 64.0426 0C69.0593 0 73.1915 4.12388 73.1915 9.13043C73.1915 13.0661 70.6217 16.42 67.0922 17.6902V30.4348C67.0979 30.8381 67.0233 31.2385 66.8726 31.6127C66.7219 31.987 66.4981 32.3276 66.2144 32.6148C66.0693 32.7616 65.9101 32.893 65.7393 33.0071C65.4934 33.0024 65.247 33 65 33C64.1487 33 63.3042 33.0284 62.4673 33.0842C62.2501 32.9534 62.0496 32.7959 61.8707 32.6148C61.587 32.3276 61.3632 31.987 61.2126 31.6127C61.0619 31.2385 60.9872 30.8381 60.9929 30.4348V17.6902C57.4635 16.42 54.8936 13.0661 54.8936 9.13043ZM67.0922 9.13043C67.0922 7.41352 65.763 6.08696 64.0426 6.08696C62.3222 6.08696 60.9929 7.41352 60.9929 9.13043C60.9929 10.7835 62.2367 12.0445 63.8639 12.1382C63.9075 12.1353 63.9512 12.1333 63.9949 12.1323C64.0684 12.1316 64.1419 12.1336 64.2153 12.1382C65.8455 12.0474 67.0922 10.7856 67.0922 9.13043Z" fill="url(#paint0_linear_13_271)"/>
<path fill-rule="evenodd" clip-rule="evenodd" d="M34.8309 48.3643L18.1013 38.3942C18.2299 37.789 18.2979 37.1627 18.2979 36.5217C18.2979 31.5152 14.1656 27.3913 9.14894 27.3913C4.13224 27.3913 0 31.5152 0 36.5217C0 41.5283 4.13224 45.6522 9.14894 45.6522C11.3212 45.6522 13.302 44.849 14.8789 43.5657L31.6909 53.5894C32.592 51.7569 33.644 50.01 34.8309 48.3643ZM12.1986 36.5217C12.1986 34.8048 10.8693 33.4783 9.14894 33.4783C7.42854 33.4783 6.09929 34.8048 6.09929 36.5217C6.09929 38.2387 7.42854 39.5652 9.14894 39.5652C10.8693 39.5652 12.1986 38.2387 12.1986 36.5217Z" fill="url(#paint1_linear_13_271)"/>
<path fill-rule="evenodd" clip-rule="evenodd" d="M61.0705 105.797C61.016 106.032 60.9895 106.276 60.9929 106.522V122.31C57.4635 123.58 54.8936 126.934 54.8936 130.87C54.8936 135.876 59.0259 140 64.0426 140C69.0593 140 73.1915 135.876 73.1915 130.87C73.1915 126.934 70.6217 123.58 67.0922 122.31V106.522C67.0949 106.328 67.079 106.135 67.045 105.945C66.368 105.982 65.6862 106 65 106C63.6727 106 62.3617 105.931 61.0705 105.797ZM64.2213 127.862C64.1042 127.868 63.9869 127.868 63.8698 127.862C62.2396 127.953 60.9929 129.214 60.9929 130.87C60.9929 132.586 62.3222 133.913 64.0426 133.913C65.763 133.913 67.0922 132.586 67.0922 130.87C67.0922 129.216 65.8484 127.955 64.2213 127.862Z" fill="url(#paint2_linear_13_271)"/>
<path fill-rule="evenodd" clip-rule="evenodd" d="M94.6434 91.3464C94.6708 91.4342 94.7023 91.521 94.7378 91.6064C94.99 92.2133 95.4322 92.7225 95.9983 93.0579L109.99 101.588C109.859 102.199 109.787 102.831 109.787 103.478C109.787 108.485 113.919 112.609 118.936 112.609C123.953 112.609 128.085 108.485 128.085 103.478C128.085 98.4717 123.953 94.3478 118.936 94.3478C116.772 94.3478 114.798 95.1472 113.224 96.4224L99.179 87.8626C98.6592 87.5369 98.053 87.3753 97.4398 87.3989C97.3747 87.4014 97.31 87.4059 97.2455 87.4125C96.4626 88.7811 95.5928 90.0948 94.6434 91.3464ZM121.986 103.478C121.986 101.761 120.657 100.435 118.936 100.435C117.216 100.435 115.887 101.761 115.887 103.478C115.887 105.195 117.216 106.522 118.936 106.522C120.657 106.522 121.986 105.195 121.986 103.478Z" fill="url(#paint3_linear_13_271)"/>
<path fill-rule="evenodd" clip-rule="evenodd" d="M97.8634 52.7134L113.206 43.5657C114.783 44.849 116.764 45.6522 118.936 45.6522C123.953 45.6522 128.085 41.5283 128.085 36.5217C128.085 31.5152 123.953 27.3913 118.936 27.3913C113.919 27.3913 109.787 31.5152 109.787 36.5217C109.787 37.1627 109.855 37.789 109.984 38.3942L94.5821 47.573C95.8139 49.1876 96.913 50.9064 97.8634 52.7134ZM121.986 36.5217C121.986 34.8048 120.657 33.4783 118.936 33.4783C117.216 33.4783 115.887 34.8048 115.887 36.5217C115.887 38.2387 117.216 39.5652 118.936 39.5652C120.657 39.5652 121.986 38.2387 121.986 36.5217Z" fill="url(#paint4_linear_13_271)"/>
<path fill-rule="evenodd" clip-rule="evenodd" d="M28.9061 87.8626C29.398 87.5528 29.9684 87.3899 30.5501 87.393C31.2173 87.3973 31.8646 87.6198 32.393 88.0264C32.9213 88.433 33.3015 89.0013 33.4752 89.6442C33.6489 90.2871 33.6066 90.9691 33.3548 91.5857C33.1029 92.2023 32.6554 92.7194 32.0808 93.0579L18.0954 101.588C18.2266 102.199 18.2979 102.831 18.2979 103.478C18.2979 108.485 14.1656 112.609 9.14894 112.609C4.13224 112.609 0 108.485 0 103.478C0 98.4717 4.13224 94.3478 9.14894 94.3478C11.3136 94.3478 13.2867 95.1472 14.8611 96.4224L28.9061 87.8626ZM12.1986 103.478C12.1986 101.761 10.8693 100.435 9.14894 100.435C7.42854 100.435 6.09929 101.761 6.09929 103.478C6.09929 105.195 7.42854 106.522 9.14894 106.522C10.8693 106.522 12.1986 105.195 12.1986 103.478Z" fill="url(#paint5_linear_13_271)"/>
<path fill-rule="evenodd" clip-rule="evenodd" d="M74.5891 52.9846C76.9084 52.5494 85.5838 50.9214 85.9699 53.696C86.3661 56.5376 82.7909 60.4563 79.0504 62.2174C78.8532 62.3103 78.6782 62.4382 78.5028 62.5663C78.3572 62.6726 78.2113 62.7792 78.0524 62.8659C77.4637 63.188 77.1127 63.9919 77.1991 64.7169V74.8695C74.2496 72.7837 69.914 71.4858 65.0001 71.4858C60.0863 71.4858 55.7508 72.7837 52.8013 74.8694V64.7169C52.8876 63.9919 52.5364 63.188 51.9476 62.8659C51.7892 62.7793 51.6436 62.6729 51.4981 62.5667C51.3225 62.4385 51.1471 62.3104 50.9497 62.2174C47.2092 60.4562 43.6344 56.5376 44.0301 53.696C44.4166 50.9211 53.0938 52.5497 55.4118 52.9847C55.5963 53.0194 55.7405 53.0464 55.837 53.0631C55.9043 53.0747 55.9669 53.017 55.9535 52.9499C55.8199 52.2787 55.7236 50.4637 57.0026 50.0708C57.8203 49.8193 58.3593 50.2832 58.6792 50.7512C58.8225 50.9612 59.2511 51.8688 59.5174 52.4988C59.6611 52.8391 59.9956 53.3363 60.3628 53.3273C61.9041 52.845 63.4523 52.6038 65.0001 52.6038C66.5481 52.6038 68.0962 52.845 69.6373 53.3273C70.0047 53.3363 70.3391 52.8391 70.4827 52.4988C70.749 51.8688 71.1778 50.9612 71.3209 50.7512C71.6409 50.2832 72.1802 49.8193 72.9977 50.0708C74.2765 50.4637 74.1801 52.2787 74.0468 52.9499C74.0332 53.017 74.0958 53.0747 74.1631 53.0631C74.2598 53.0464 74.4042 53.0193 74.5891 52.9846ZM63.1582 64.2248C63.2008 63.9677 62.79 63.316 61.5067 62.4313C60.6061 61.8178 59.6083 61.3467 58.5648 61.0368C58.3198 60.9639 58.0646 60.9166 57.8092 60.9259C57.3431 60.9433 56.8965 61.1033 56.5049 61.3866C55.9822 61.7515 55.6201 62.2386 55.5109 62.8688C55.399 63.4983 55.5738 64.0808 55.9406 64.6038C56.2122 65.0043 56.5775 65.3083 57.0095 65.4849C57.2463 65.582 57.5022 65.6247 57.7575 65.6408C58.8434 65.7082 59.9411 65.6088 60.9962 65.342C62.503 64.9516 63.1107 64.4806 63.1582 64.2248ZM72.9908 65.4849C73.4228 65.3083 73.7881 65.0043 74.0596 64.6038C74.4265 64.0808 74.6012 63.4986 74.4893 62.8691C74.3803 62.2389 74.018 61.7515 73.4954 61.3865C73.104 61.1033 72.6572 60.9433 72.1911 60.9259C71.9357 60.9166 71.6805 60.9639 71.4355 61.0368C70.3919 61.3466 69.3942 61.8178 68.4935 62.4313C67.2103 63.316 66.7995 63.9675 66.8418 64.2245C66.8894 64.4804 67.4971 64.9516 69.0041 65.342C70.0589 65.6088 71.1569 65.7082 72.2428 65.6408C72.498 65.6247 72.754 65.582 72.9908 65.4849Z" fill="url(#paint6_linear_13_271)"/>
<path fill-rule="evenodd" clip-rule="evenodd" d="M50.4673 81.5874C50.4673 76.9412 56.9737 73.1748 65.0001 73.1748C73.0264 73.1748 79.5332 76.9413 79.5332 81.5874C79.5332 86.2336 73.0266 90 65.0001 90C56.9737 90 50.4673 86.2337 50.4673 81.5874ZM55.4979 81.0638C55.72 82.4472 56.8779 83.0572 58.1216 82.4472C59.3346 81.8732 60.1341 80.6744 60.2023 79.3287C60.1969 78.6155 59.8214 78.8893 59.3577 79.2274C58.7376 79.6795 57.9598 80.2466 57.6984 78.7229C57.2414 76.0594 55.2545 79.5818 55.4979 81.0638ZM71.8785 82.4472C73.1218 83.0572 74.2798 82.4472 74.5021 81.0638C74.7452 79.5818 72.7587 76.0594 72.3016 78.7229C72.04 80.2467 71.2621 79.6795 70.6422 79.2273C70.1786 78.8892 69.8032 78.6155 69.798 79.3287C69.8656 80.6744 70.6653 81.8732 71.8785 82.4472Z" fill="url(#paint7_linear_13_271)"/>
<defs>
<linearGradient id="paint0_linear_13_271" x1="3.81469e-06" y1="70" x2="105.945" y2="21.5682" gradientUnits="userSpaceOnUse">
<stop stop-color="#FFE7E0"/>
<stop offset="0.34375" stop-color="#F8DBF4"/>
<stop offset="0.6875" stop-color="#C4DDFF"/>
<stop offset="1" stop-color="#CAE9FF"/>
</linearGradient>
<linearGradient id="paint1_linear_13_271" x1="3.81469e-06" y1="70" x2="105.945" y2="21.5682" gradientUnits="userSpaceOnUse">
<stop stop-color="#FFE7E0"/>
<stop offset="0.34375" stop-color="#F8DBF4"/>
<stop offset="0.6875" stop-color="#C4DDFF"/>
<stop offset="1" stop-color="#CAE9FF"/>
</linearGradient>
<linearGradient id="paint2_linear_13_271" x1="3.81469e-06" y1="70" x2="105.945" y2="21.5682" gradientUnits="userSpaceOnUse">
<stop stop-color="#FFE7E0"/>
<stop offset="0.34375" stop-color="#F8DBF4"/>
<stop offset="0.6875" stop-color="#C4DDFF"/>
<stop offset="1" stop-color="#CAE9FF"/>
</linearGradient>
<linearGradient id="paint3_linear_13_271" x1="3.81469e-06" y1="70" x2="105.945" y2="21.5682" gradientUnits="userSpaceOnUse">
<stop stop-color="#FFE7E0"/>
<stop offset="0.34375" stop-color="#F8DBF4"/>
<stop offset="0.6875" stop-color="#C4DDFF"/>
<stop offset="1" stop-color="#CAE9FF"/>
</linearGradient>
<linearGradient id="paint4_linear_13_271" x1="3.81469e-06" y1="70" x2="105.945" y2="21.5682" gradientUnits="userSpaceOnUse">
<stop stop-color="#FFE7E0"/>
<stop offset="0.34375" stop-color="#F8DBF4"/>
<stop offset="0.6875" stop-color="#C4DDFF"/>
<stop offset="1" stop-color="#CAE9FF"/>
</linearGradient>
<linearGradient id="paint5_linear_13_271" x1="3.81469e-06" y1="70" x2="105.945" y2="21.5682" gradientUnits="userSpaceOnUse">
<stop stop-color="#FFE7E0"/>
<stop offset="0.34375" stop-color="#F8DBF4"/>
<stop offset="0.6875" stop-color="#C4DDFF"/>
<stop offset="1" stop-color="#CAE9FF"/>
</linearGradient>
<linearGradient id="paint6_linear_13_271" x1="44" y1="70" x2="76.9345" y2="52.7209" gradientUnits="userSpaceOnUse">
<stop stop-color="#FFE7E0"/>
<stop offset="0.34375" stop-color="#F8DBF4"/>
<stop offset="0.6875" stop-color="#C4DDFF"/>
<stop offset="1" stop-color="#CAE9FF"/>
</linearGradient>
<linearGradient id="paint7_linear_13_271" x1="44" y1="70" x2="76.9345" y2="52.7209" gradientUnits="userSpaceOnUse">
<stop stop-color="#FFE7E0"/>
<stop offset="0.34375" stop-color="#F8DBF4"/>
<stop offset="0.6875" stop-color="#C4DDFF"/>
<stop offset="1" stop-color="#CAE9FF"/>
</linearGradient>
</defs>
</svg>
